packages/assets/static/images/icons/linkedin-logo.svg

<svg width="24" height="24" viewBox="0 0 24 24" xmlns="http://www.w3.org/2000/svg">
<path d="M20.25 2.25H3.75C3.35218 2.25 2.97064 2.40804 2.68934 2.68934C2.40804 2.97064 2.25 3.35218 2.25 3.75V20.25C2.25 20.6478 2.40804 21.0294 2.68934 21.3107C2.97064 21.592 3.35218 21.75 3.75 21.75H20.25C20.6478 21.75 21.0294 21.592 21.3107 21.3107C21.592 21.0294 21.75 20.6478 21.75 20.25V3.75C21.75 3.35218 21.592 2.97064 21.3107 2.68934C21.0294 2.40804 20.6478 2.25 20.25 2.25ZM20.25 20.25H3.75V3.75H20.25V20.25ZM9 10.5V16.5C9 16.6989 8.92098 16.8897 8.78033 17.0303C8.63968 17.171 8.44891 17.25 8.25 17.25C8.05109 17.25 7.86032 17.171 7.71967 17.0303C7.57902 16.8897 7.5 16.6989 7.5 16.5V10.5C7.5 10.3011 7.57902 10.1103 7.71967 9.96967C7.86032 9.82902 8.05109 9.75 8.25 9.75C8.44891 9.75 8.63968 9.82902 8.78033 9.96967C8.92098 10.1103 9 10.3011 9 10.5ZM17.25 13.125V16.5C17.25 16.6989 17.171 16.8897 17.0303 17.0303C16.8897 17.171 16.6989 17.25 16.5 17.25C16.3011 17.25 16.1103 17.171 15.9697 17.0303C15.829 16.8897 15.75 16.6989 15.75 16.5V13.125C15.75 12.6277 15.5525 12.1508 15.2008 11.7992C14.8492 11.4475 14.3723 11.25 13.875 11.25C13.3777 11.25 12.9008 11.4475 12.5492 11.7992C12.1975 12.1508 12 12.6277 12 13.125V16.5C12 16.6989 11.921 16.8897 11.7803 17.0303C11.6397 17.171 11.4489 17.25 11.25 17.25C11.0511 17.25 10.8603 17.171 10.7197 17.0303C10.579 16.8897 10.5 16.6989 10.5 16.5V10.5C10.5009 10.3163 10.5693 10.1393 10.692 10.0026C10.8148 9.86596 10.9834 9.7791 11.166 9.75852C11.3485 9.73794 11.5323 9.78508 11.6824 9.891C11.8325 9.99691 11.9385 10.1542 11.9803 10.3331C12.4877 9.98894 13.0792 9.78947 13.6914 9.75611C14.3036 9.72276 14.9133 9.85679 15.455 10.1438C15.9968 10.4308 16.4501 10.86 16.7664 11.3852C17.0826 11.9105 17.2498 12.5119 17.25 13.125ZM9.375 7.875C9.375 8.0975 9.30902 8.31501 9.1854 8.50002C9.06179 8.68502 8.88609 8.82922 8.68052 8.91436C8.47495 8.99951 8.24875 9.02179 8.03052 8.97838C7.81229 8.93498 7.61184 8.82783 7.4545 8.6705C7.29717 8.51316 7.19002 8.31271 7.14662 8.09448C7.10321 7.87625 7.12549 7.65005 7.21064 7.44448C7.29578 7.23891 7.43998 7.06321 7.62498 6.9396C7.80999 6.81598 8.0275 6.75 8.25 6.75C8.54837 6.75 8.83452 6.86853 9.0455 7.0795C9.25647 7.29048 9.375 7.57663 9.375 7.875Z"/>
</svg>

<svg viewBox="0 0 24 24" xmlns="http://www.w3.org/2000/svg" aria-hidden="true" fill="currentColor"><path d="M20.25 2.25H3.75a1.5 1.5 0 0 0-1.5 1.5v16.5a1.5 1.5 0 0 0 1.5 1.5h16.5a1.5 1.5 0 0 0 1.5-1.5V3.75a1.5 1.5 0 0 0-1.5-1.5m0 18H3.75V3.75h16.5zM9 10.5v6a.75.75 0 1 1-1.5 0v-6a.75.75 0 1 1 1.5 0m8.25 2.625V16.5a.75.75 0 1 1-1.5 0v-3.375a1.875 1.875 0 1 0-3.75 0V16.5a.75.75 0 1 1-1.5 0v-6a.75.75 0 0 1 1.48-.167 3.375 3.375 0 0 1 5.27 2.792m-7.875-5.25a1.125 1.125 0 1 1-2.25 0 1.125 1.125 0 0 1 2.25 0"/></svg>
